icons/svgs/moon-solid.svg

<svg width="24" height="24" viewBox="0 0 24 24" fill="none" xmlns="http://www.w3.org/2000/svg">
<path d="M13.7109 3.25V3.28906C13.9453 3.28906 14.2188 3.28906 14.4531 3.28906C14.7266 3.32812 14.9609 3.52344 15 3.79688C15.0781 4.07031 14.9609 4.34375 14.7266 4.46094C12.6172 5.63281 11.2109 7.89844 11.2109 10.4375C11.2109 14.2656 14.2969 17.3125 18.0859 17.3125C18.4766 17.3125 18.8672 17.3125 19.2578 17.2344C19.5312 17.1953 19.8047 17.3125 19.9219 17.5469C20.0391 17.8203 20 18.0938 19.8047 18.2891C18.2422 19.8125 16.0938 20.75 13.7109 20.75C8.90625 20.75 5 16.8438 5 12C5 7.19531 8.90625 3.25 13.7109 3.25Z" fill="black"/>
</svg>

<svg xmlns="http://www.w3.org/2000/svg" width="24" height="24" fill="currentColor" class="icon-moon-solid" viewBox="0 0 24 24">
  <mask id="a" width="15" height="18" x="5" y="3" maskUnits="userSpaceOnUse" style="mask-type:alpha">
    <path d="M13.71 3.25v.04h.743c.274.038.508.233.547.507a.56.56 0 0 1-.273.664 6.85 6.85 0 0 0-3.516 5.977 6.86 6.86 0 0 0 6.875 6.874c.39 0 .781 0 1.172-.078.273-.039.547.078.664.313.117.273.078.547-.117.742a8.7 8.7 0 0 1-6.094 2.461C8.906 20.75 5 16.844 5 12c0-4.805 3.906-8.75 8.71-8.75"/>
  </mask>
  <g mask="url(#a)">
    <path d="M0 0h24v24H0z"/>
  </g>
</svg>
